X:1
T:Ne quisquam dubitet
T:Daniel Friderici
T:Source : Bicinia sacra---Rostock---J.Richelius---1642. Editor : André Vierendeels (07/07/17).
T:Notes : Original clefs : C1, C1 Editorial accidentals above the staff
T:Ne quisquam dubitet
T:©
T:©
C:Daniel Friderici
Z:©
%%score [ 1 2 ]
L:1/8
Q:1/4=120
M:2/2
K:C
V:1 treble nm="Soprano 1" snm="S 1"
V:2 treble nm="Soprano 2" snm="S 2"
V:1
 E8 | E4 E4 | A6 A2 | ^G6 A2 | B8 | c8 | B4 e4 | d4 G4 | A4 e4 | d4 c4- | c2 B2 A2 B2 | %11
w: Ne|quis- quam|du- bi-|tet _|_|sum-|mi de|cor- de,|sum- mi|de cor-||
 c2 d2 e2 d2 | c2 B2 A2 EF | G2 D2 A4 |"^#" E6 F2 | ^G4 A4 | B8 | B8 :: c2 c2 c2 c2- | %19
w: |||de _|_ pa-|ren-|tis:|Pi- gnus na- tu-|
 c2 B2 c2 d2 | e2 c3 c B2 | c2 G2 A2 F2 | E2 e3 dec | d2 e2 dccB/A/ | B4 A2 B2- | BABc dBcd | %26
w: * rae tra- di-|dit, pi- gnus na-|tu- rae tra- di-|dit, i- * * *|* pse su- * * * *|* ae, i-||
 e2 dc BGAB | c2 BA B4- | B2 A2 A4- | A2 ^G^F G4 | A8 :| %31
w: ||* pse su-||ae.|
V:2
 z8 | z8 | z8 | E8 | E4 E4 | A6 A2 | ^G6 A2 | B8 | c8 | A4 e4- | e2 d2 c2 B2 | A2 B2 c2 d2 | e8 | %13
w: |||Ne|quis- quam|du- bi-|tet _|sum-|mi|de cor-||||
 d4 c4 | B8 | d4 c4 | ^G8 | ^G8 :: A2 A2 A2 A2- | A2 G2 F3 F | E2 e3 e d2 | e2 d2 c2 A2 | %22
w: |de|de pa-|ren-|tis:|Pi- gnus na- tu-|* rae tra- di-|dit, pi- gnus na-|tu- rae tra- di-|
 B2 c3 BcA | B2 c2 BA A2- | A^G/^F/ G2 A2 E2- | EFGA BGAB | cABc dBcd | e4 d4 | c6 BA | B8 | A8 :| %31
w: dit, i- * * *|* pse su- * *|* * * * ae, i-|||* pse|su- * *||ae.|

